X: 22905
T: Larkin's Beehive
R: reel
M: 4/4
K: Gmajor
|:Bd~d2 edge|dGBG AGEG|Bd~d2 edge|dBAc BGGA|
BABd edge|dcBG AGEG|BABG ABGB|dBAc BGG2:|
|:Bd~d2 eg~g2|eaaf gedB|GBdG eGdG|(3ABc BG AGEG|
Bd~d2 eg~g2|eaaf gedc|~B2BG ABGB|dBAc BGG2:|

